-----BEGIN PGP PUBLIC KEY BLOCK-----
Comment: Hostname: 
Version: Hockeypuck 2.2

xsFNBFiuHLMBEADVy7aIqnwMsfRdo+l3sUQe1k+kW5iCI7T7ResW1bQ94KNx2OAn
hkOiA3yahXDCqtLOuQfsKsDqtY2m7nhvH3HmmKf9+HvXhJvsUlay/rITtXjRzlHx
o3YnvyX4SOnUL8DFTrLJC5Jcta1CTtgECEhEPQp2b+C/LO0p3hdTWGvpkTc1r54J
m5sDDPT5nzIHQEqfxLsPY6FVIOSGy1bDMKDhyUJIU2eLPJ6upJcZLkNKA45zA7ds
Ha8TsqjqhgZQU2PyZg97ZGuefyqp09KKgZ1de8k//8I/yGibr/xmnj/+uI1IW+r/
/U0uZxjJkZ54BYou+fnKn6hQdhp4kgP5YtkU+tdJ0z/oFBAdrGsVQIs9OM4rlNkh
UURT30r8riHF9cR+OjZ80rzuCEuZifDX2FCC+HP8j7aEMfojezePLYSvafi++27M
1kCw32RCCE5HcA+SQejCpvkgkRx5aju1SeVPHR0VjfDwF7Qb8Hy1gERwOmxqgeow
ry1ASUImmT2SnKXoaPyOnEFVtTIGd4k73xfu0NgzfXgfCnX+Nn+ctVaEO4xdrP+p
x9y92/Nz/d0MNDQQdB/JaxAZ1TiDZFiEAypPYAra+X+v/I6+/cHyu9bVXeBwEG1B
TNZm34SFkqmsbBohs7HWlRmgPsM+Erf81b++pbktVJteO/PY/KzvBAHzgwARAQAB
zR5MYXVuY2hwYWQgUFBBIGZvciBEaWdpdGFsZ2hvc3TCwXgEEwECACIFAliuHLMC
GwMGCwkIBwMCBhUIAgkKCwQWAgMBAh4BAheAAAoJEMtK3qW3KgehRYUP/3PK2FQu
lpcVc/tgd55g4VwjwD8xtPBqf+I5kLtyGBFDXOWQ648VH7e2de3pnvivyFlJH1k1
/4XUcBR49ZhnBcKVgx2uUylVzJIE1VghmY/JeVzzOWys6/4OPZV7Rq3HmkjayCm1
1xNKOsXYnPOnIE9vCXH2EBYNi6GRKtqA6gdJnnpNbG972y1zZ6UTNU4sB9OJVuMo
03PjK8aw499GwSHtQD+MK/cIJ0araEM+92MJJDcfPXCJsYPxasHa3VGefYB7yKtG
pbjCd7PYp2ezSJY46njluKSRuvE5znNIPnhW/FDr2/L6+fELA98O98CWcVByJwi+
+0xPVYpDWScyRl9B1cBJeMQ0wIMFS6UhaWHrHyzg+KbMuaoX+LYiGPVnZ5auFdW7
iHNJ+KjDOAIo3qFKnxPMEeHq3ARwk3XDDWDpPqAD7a8ibvqLPXR3cFOZUW0vTQXC
GpwB2GRMqAN6Fe6fEu2gctZIY8XOhHGmARoi6otHp8OADdhj3vkDz/Wp+H/2Lugh
x2o0wUUle41AE0NLLTgjzwp81V3VCwO+vU9c/chteNJBEHAfB2tVKt5oVPgm0G0t
E9zBSZdby3OEfRYAco7R2+lgjEzPTLTjbc+PwHR4hbd2bbqZctPLOX5SKXzQqOyO
4qyReMS8WKQG2coTjURHw1WFNFpn2+LNkzYU
=4X0V
-----END PGP PUBLIC KEY BLOCK-----
